;FLAVOR:Marlin
;TIME:10750
;Filament used: 4.8497m
;Layer height: 0.12
;MINX:41.706
;MINY:45.702
;MINZ:0.12
;MAXX:187.295
;MAXY:191.298
;MAXZ:4.92
;Generated with Cura_SteamEngine 4.9.1
M140 S50
M105
M190 S50
M104 S200
M105
M109 S200
M82 ;absolute extrusion mode
; Ender 3 Custom Start G-code
G92 E0 ; Reset Extruder
G28 ; Home all axes
G1 Z2.0 F3000 ; Move Z Axis up little to prevent scratching of Heat Bed
G1 X0.1 Y20 Z0.3 F5000.0 ; Move to start position
G1 X0.1 Y200.0 Z0.3 F1500.0 E15 ; Draw the first line
G1 X0.4 Y200.0 Z0.3 F5000.0 ; Move to side a little
G1 X0.4 Y20 Z0.3 F1500.0 E30 ; Draw the second line
G92 E0 ; Reset Extruder
G1 Z2.0 F3000 ; Move Z Axis up little to prevent scratching of Heat Bed
G1 X5 Y20 Z0.3 F5000.0 ; Move over to prevent blob squish
G92 E0
G92 E0
G1 F2700 E-5
;LAYER_COUNT:41
;LAYER:0
M107
G0 F6000 X64.048 Y66.024 Z0.12
;TYPE:SKIRT
G1 F2700 E0
G1 F1200 X64.234 Y65.846 E0.00514
G1 X65.836 Y64.361 E0.04873
G1 X66.036 Y64.182 E0.05409
G1 X67.687 Y62.754 E0.09765
G1 X67.881 Y62.591 E0.1027
G1 X69.579 Y61.216 E0.14631
G1 X69.792 Y61.05 E0.1517
G1 X71.536 Y59.735 E0.19528
G1 X71.745 Y59.583 E0.20044
G1 X73.531 Y58.327 E0.24401
G1 X73.747 Y58.18 E0.24923
G1 X75.573 Y56.985 E0.29278
G1 X75.798 Y56.843 E0.29809
G1 X77.667 Y55.709 E0.34171
G1 X77.894 Y55.577 E0.34695
G1 X79.796 Y54.509 E0.39048
G1 X80.022 Y54.387 E0.39561
G1 X81.962 Y53.38 E0.43923
G1 X82.202 Y53.261 E0.44458
G1 X84.174 Y52.322 E0.48816
G1 X84.408 Y52.215 E0.4933
G1 X86.409 Y51.342 E0.53686
G1 X86.65 Y51.242 E0.54207
G1 X88.68 Y50.436 E0.58566
G1 X88.929 Y50.341 E0.59098
G1 X90.985 Y49.605 E0.63456
G1 X91.23 Y49.522 E0.63972
G1 X93.311 Y48.854 E0.68333
G1 X93.564 Y48.778 E0.68861
G1 X95.663 Y48.182 E0.73215
G1 X95.922 Y48.113 E0.7375
G1 X98.041 Y47.589 E0.78106
G1 X98.281 Y47.534 E0.78597
G1 X100.393 Y47.082 E0.82907
G1 X100.663 Y47.029 E0.83457
G1 X102.839 Y46.643 E0.87867
G1 X103.09 Y46.603 E0.88374
G1 X105.251 Y46.292 E0.92731
G1 X105.516 Y46.258 E0.93264
G1 X107.688 Y46.021 E0.97624
G1 X107.948 Y45.997 E0.98145
G1 X110.125 Y45.833 E1.02502
G1 X110.39 Y45.818 E1.03032
G1 X112.573 Y45.728 E1.07392
G1 X112.826 Y45.721 E1.07897
G1 X115.009 Y45.702 E1.12254
G1 X115.277 Y45.705 E1.12788
G1 X117.46 Y45.761 E1.17146
G1 X117.725 Y45.772 E1.17676
G1 X119.904 Y45.902 E1.22032
G1 X120.16 Y45.921 E1.22544
G1 X122.335 Y46.123 E1.26903
G1 X122.599 Y46.153 E1.27433
G1 X124.766 Y46.429 E1.31793
G1 X125.024 Y46.466 E1.32313
G1 X127.179 Y46.814 E1.36669
G1 X127.432 Y46.859 E1.37182
G1 X129.576 Y47.278 E1.41541
G1 X129.839 Y47.334 E1.42078
G1 X131.965 Y47.826 E1.46433
G1 X132.216 Y47.888 E1.46949
G1 X134.327 Y48.451 E1.51309
G1 X134.58 Y48.524 E1.51834
G1 X136.671 Y49.158 E1.56195
G1 X136.924 Y49.239 E1.56725
G1 X138.99 Y49.943 E1.61081
G1 X139.233 Y50.03 E1.61596
G1 X141.277 Y50.803 E1.65957
G1 X141.524 Y50.902 E1.66488
G1 X143.54 Y51.744 E1.70848
G1 X143.773 Y51.845 E1.71354
G1 X145.758 Y52.751 E1.75709
G1 X145.999 Y52.866 E1.76242
G1 X147.953 Y53.84 E1.80599
G1 X148.187 Y53.962 E1.81125
G1 X150.108 Y55.002 E1.85485
G1 X150.336 Y55.13 E1.86006
G1 X152.221 Y56.234 E1.90366
G1 X152.442 Y56.369 E1.90883
G1 X154.288 Y57.534 E1.95239
G1 X154.506 Y57.677 E1.95759
G1 X156.312 Y58.903 E2.00115
G1 X156.531 Y59.057 E2.00649
G1 X158.296 Y60.346 E2.05011
G1 X158.503 Y60.502 E2.05528
G1 X160.222 Y61.847 E2.09884
G1 X160.424 Y62.01 E2.10402
G1 X162.099 Y63.413 E2.14762
G1 X162.299 Y63.587 E2.15291
G1 X163.924 Y65.045 E2.19648
G1 X164.117 Y65.224 E2.20173
G1 X165.693 Y66.737 E2.24533
G1 X165.877 Y66.921 E2.25053
G1 X167.4 Y68.484 E2.29408
G1 X167.58 Y68.674 E2.2993
G1 X169.052 Y70.29 E2.34292
G1 X169.225 Y70.487 E2.34815
G1 X170.639 Y72.148 E2.39168
G1 X170.806 Y72.351 E2.39693
G1 X172.166 Y74.062 E2.44055
G1 X172.325 Y74.268 E2.44574
G1 X173.626 Y76.022 E2.48932
G1 X173.78 Y76.238 E2.49462
G1 X175.021 Y78.036 E2.53821
G1 X175.164 Y78.25 E2.54335
G1 X176.344 Y80.086 E2.5869
G1 X176.483 Y80.311 E2.59218
G1 X177.588 Y82.166 E2.63527
G1 X177.717 Y82.39 E2.64043
G1 X178.784 Y84.324 E2.68451
G1 X178.909 Y84.561 E2.68985
G1 X179.898 Y86.509 E2.73345
G1 X180.014 Y86.747 E2.73874
G1 X180.936 Y88.727 E2.78232
G1 X181.04 Y88.961 E2.78743
G1 X181.896 Y90.969 E2.83099
G1 X181.996 Y91.214 E2.83627
G1 X182.784 Y93.251 E2.87986
G1 X182.873 Y93.495 E2.88504
G1 X183.593 Y95.558 E2.92865
G1 X183.676 Y95.807 E2.93389
G1 X184.326 Y97.892 E2.97747
G1 X184.4 Y98.144 E2.98271
G1 X184.979 Y100.249 E3.02628
G1 X185.045 Y100.506 E3.03157
G1 X185.552 Y102.629 E3.07513
G1 X185.607 Y102.881 E3.08028
G1 X186.044 Y105.022 E3.12389
G1 X186.093 Y105.282 E3.12917
G1 X186.457 Y107.435 E3.17274
G1 X186.495 Y107.687 E3.17783
G1 X186.785 Y109.826 E3.2209
G1 X186.817 Y110.093 E3.22627
G1 X187.038 Y112.29 E3.27034
G1 X187.06 Y112.55 E3.27554
G1 X187.206 Y114.73 E3.31914
G1 X187.219 Y114.994 E3.32442
G1 X187.291 Y117.176 E3.36799
G1 X187.295 Y117.437 E3.3732
G1 X187.294 Y119.622 E3.4168
G1 X187.29 Y119.882 E3.42199
G1 X187.216 Y122.065 E3.46558
G1 X187.202 Y122.326 E3.47079
G1 X187.055 Y124.505 E3.51438
G1 X187.033 Y124.766 E3.5196
G1 X186.813 Y126.937 E3.56315
G1 X186.782 Y127.2 E3.56844
G1 X186.488 Y129.366 E3.61206
G1 X186.448 Y129.625 E3.61729
G1 X186.082 Y131.776 E3.66083
G1 X186.035 Y132.032 E3.66602
G1 X185.597 Y134.172 E3.70961
G1 X185.54 Y134.428 E3.71485
G1 X185.03 Y136.553 E3.75846
G1 X184.964 Y136.808 E3.76372
G1 X184.383 Y138.913 E3.80729
G1 X184.309 Y139.166 E3.81255
G1 X183.658 Y141.248 E3.85609
G1 X183.576 Y141.493 E3.86124
G1 X182.855 Y143.556 E3.90485
G1 X182.764 Y143.803 E3.91011
G1 X181.974 Y145.84 E3.95371
G1 X181.874 Y146.086 E3.95901
G1 X181.016 Y148.093 E4.00257
G1 X180.911 Y148.328 E4.0077
G1 X179.987 Y150.306 E4.05127
G1 X179.874 Y150.539 E4.05644
G1 X178.884 Y152.487 E4.10004
G1 X178.759 Y152.723 E4.10537
G1 X177.704 Y154.634 E4.14894
G1 X177.572 Y154.862 E4.15419
G1 X176.452 Y156.738 E4.19779
G1 X176.315 Y156.96 E4.203
G1 X175.134 Y158.796 E4.24657
G1 X174.989 Y159.013 E4.25177
G1 X173.746 Y160.81 E4.29538
G1 X173.593 Y161.024 E4.30063
G1 X172.291 Y162.777 E4.3442
G1 X172.131 Y162.985 E4.34944
G1 X170.77 Y164.694 E4.39304
G1 X170.604 Y164.895 E4.39824
G1 X169.188 Y166.556 E4.4418
G1 X169.015 Y166.752 E4.44702
G1 X167.543 Y168.366 E4.49061
G1 X167.361 Y168.559 E4.4959
G1 X165.835 Y170.122 E4.5395
G1 X165.65 Y170.305 E4.54469
G1 X164.074 Y171.815 E4.58824
G1 X163.883 Y171.992 E4.59344
G1 X162.256 Y173.45 E4.63704
G1 X162.055 Y173.624 E4.64234
G1 X160.38 Y175.025 E4.68592
G1 X160.177 Y175.19 E4.69114
G1 X158.456 Y176.534 E4.73472
G1 X158.248 Y176.69 E4.73991
G1 X156.483 Y177.976 E4.78349
G1 X156.268 Y178.128 E4.78874
G1 X154.46 Y179.354 E4.83234
G1 X154.243 Y179.495 E4.8375
G1 X152.396 Y180.66 E4.88108
G1 X152.165 Y180.801 E4.88648
G1 X150.279 Y181.901 E4.93005
G1 X150.06 Y182.024 E4.93506
G1 X148.139 Y183.063 E4.97865
G1 X147.903 Y183.185 E4.98395
G1 X145.946 Y184.159 E5.02757
G1 X145.705 Y184.274 E5.0329
G1 X143.719 Y185.179 E5.07646
G1 X143.481 Y185.282 E5.08163
G1 X141.467 Y186.12 E5.12516
G1 X141.226 Y186.216 E5.13034
G1 X139.181 Y186.988 E5.17396
G1 X138.932 Y187.077 E5.17924
G1 X136.863 Y187.779 E5.22284
G1 X136.621 Y187.857 E5.22791
G1 X134.557 Y188.483 E5.27095
G1 X134.297 Y188.557 E5.27635
G1 X132.16 Y189.125 E5.32048
G1 X131.907 Y189.188 E5.32568
G1 X129.78 Y189.678 E5.36924
G1 X129.522 Y189.733 E5.3745
G1 X127.379 Y190.151 E5.41807
G1 X127.121 Y190.197 E5.4233
G1 X124.964 Y190.543 E5.4669
G1 X124.707 Y190.579 E5.47208
G1 X122.54 Y190.853 E5.51567
G1 X122.277 Y190.882 E5.52095
G1 X120.103 Y191.082 E5.56452
G1 X119.85 Y191.101 E5.56958
G1 X117.695 Y191.229 E5.61266
G1 X117.427 Y191.241 E5.61801
G1 X115.219 Y191.296 E5.66209
G1 X114.954 Y191.298 E5.66738
G1 X112.771 Y191.278 E5.71094
G1 X112.514 Y191.271 E5.71607
G1 X110.331 Y191.179 E5.75968
G1 X110.066 Y191.163 E5.76498
G1 X107.888 Y190.997 E5.80857
G1 X107.631 Y190.974 E5.81372
G1 X105.46 Y190.736 E5.8573
G1 X105.195 Y190.702 E5.86263
G1 X103.035 Y190.39 E5.90618
G1 X102.779 Y190.348 E5.91136
G1 X100.629 Y189.964 E5.95495
G1 X100.372 Y189.914 E5.96017
G1 X98.236 Y189.458 E6.00376
G1 X97.979 Y189.399 E6.00902
G1 X95.859 Y188.871 E6.05262
G1 X95.604 Y188.803 E6.05788
G1 X93.505 Y188.204 E6.10144
G1 X93.257 Y188.128 E6.10662
G1 X91.177 Y187.459 E6.15022
G1 X90.932 Y187.376 E6.15539
G1 X88.877 Y186.639 E6.19895
G1 X88.629 Y186.545 E6.20425
G1 X86.599 Y185.738 E6.24784
G1 X86.352 Y185.635 E6.25318
G1 X84.351 Y184.759 E6.29677
G1 X84.12 Y184.654 E6.30184
G1 X82.15 Y183.714 E6.3454
G1 X81.911 Y183.595 E6.35072
G1 X79.972 Y182.587 E6.39433
G1 X79.746 Y182.464 E6.39947
G1 X77.844 Y181.394 E6.44302
G1 X77.615 Y181.26 E6.44831
G1 X75.749 Y180.125 E6.4919
G1 X75.527 Y179.985 E6.49714
G1 X73.7 Y178.788 E6.54073
G1 X73.483 Y178.64 E6.54597
G1 X71.696 Y177.381 E6.58959
G1 X71.487 Y177.229 E6.59475
G1 X69.746 Y175.914 E6.63829
G1 X69.538 Y175.752 E6.64355
G1 X67.84 Y174.377 E6.68715
G1 X67.637 Y174.206 E6.69245
G1 X65.988 Y172.775 E6.73602
G1 X65.796 Y172.603 E6.74116
G1 X64.195 Y171.118 E6.78474
G1 X64.003 Y170.934 E6.79005
G1 X62.453 Y169.395 E6.83364
G1 X62.273 Y169.211 E6.83877
G1 X60.775 Y167.622 E6.88235
G1 X60.595 Y167.423 E6.88771
G1 X59.153 Y165.784 E6.93127
G1 X58.986 Y165.588 E6.93641
G1 X57.598 Y163.901 E6.98001
G1 X57.435 Y163.696 E6.98524
G1 X56.105 Y161.964 E7.02881
G1 X55.946 Y161.75 E7.03414
G1 X54.676 Y159.974 E7.07771
G1 X54.532 Y159.765 E7.08277
G1 X53.32 Y157.948 E7.12636
G1 X53.176 Y157.724 E7.13167
G1 X52.027 Y155.867 E7.17525
G1 X51.891 Y155.639 E7.18055
G1 X50.806 Y153.744 E7.22413
G1 X50.682 Y153.518 E7.22927
G1 X49.66 Y151.588 E7.27285
G1 X49.542 Y151.357 E7.27803
G1 X48.596 Y149.417 E7.3211
G1 X48.482 Y149.172 E7.32649
G1 X47.583 Y147.154 E7.37058
G1 X47.483 Y146.919 E7.37568
G1 X46.66 Y144.896 E7.41926
G1 X46.565 Y144.65 E7.42452
G1 X45.81 Y142.598 E7.46816
G1 X45.722 Y142.347 E7.47347
G1 X45.039 Y140.275 E7.517
G1 X44.962 Y140.026 E7.5222
G1 X44.348 Y137.93 E7.56579
G1 X44.279 Y137.68 E7.57097
G1 X43.735 Y135.565 E7.61455
G1 X43.674 Y135.311 E7.61976
G1 X43.201 Y133.178 E7.66336
G1 X43.148 Y132.918 E7.66865
G1 X42.748 Y130.772 E7.71222
G1 X42.704 Y130.514 E7.71744
G1 X42.376 Y128.354 E7.76104
G1 X42.341 Y128.094 E7.76628
G1 X42.086 Y125.926 E7.80984
G1 X42.06 Y125.669 E7.81499
G1 X41.877 Y123.493 E7.85857
G1 X41.86 Y123.233 E7.86377
G1 X41.751 Y121.078 E7.90683
G1 X41.742 Y120.811 E7.91216
G1 X41.706 Y118.601 E7.95627
G1 X41.706 Y118.342 E7.96144
G1 X41.743 Y116.158 E8.00503
G1 X41.752 Y115.893 E8.01032
G1 X41.863 Y113.713 E8.05388
G1 X41.881 Y113.45 E8.05914
G1 X42.066 Y111.273 E8.10274
G1 X42.092 Y111.015 E8.10792
G1 X42.349 Y108.847 E8.15149
G1 X42.384 Y108.587 E8.15672
G1 X42.714 Y106.427 E8.20033
G1 X42.758 Y106.172 E8.20549
G1 X43.159 Y104.027 E8.24904
G1 X43.212 Y103.767 E8.25433
G1 X43.686 Y101.635 E8.29792
G1 X43.748 Y101.377 E8.30321
G1 X44.294 Y99.263 E8.34679
G1 X44.362 Y99.016 E8.3519
G1 X44.978 Y96.919 E8.39551
G1 X45.058 Y96.664 E8.40085
G1 X45.744 Y94.593 E8.44439
G1 X45.829 Y94.348 E8.44956
G1 X46.585 Y92.297 E8.49318
G1 X46.678 Y92.057 E8.49832
G1 X47.501 Y90.033 E8.54192
G1 X47.607 Y89.786 E8.54729
G1 X48.498 Y87.794 E8.59083
G1 X48.608 Y87.558 E8.59603
G1 X49.566 Y85.595 E8.63962
G1 X49.687 Y85.359 E8.64491
G1 X50.711 Y83.43 E8.68849
G1 X50.836 Y83.203 E8.69367
G1 X51.923 Y81.31 E8.73723
G1 X52.055 Y81.089 E8.74237
G1 X53.205 Y79.231 E8.78597
G1 X53.35 Y79.004 E8.79135
G1 X54.562 Y77.189 E8.8349
G1 X54.709 Y76.977 E8.84005
G1 X55.982 Y75.201 E8.88365
G1 X56.138 Y74.991 E8.88888
G1 X57.468 Y73.261 E8.93242
G1 X57.634 Y73.053 E8.93773
G1 X59.024 Y71.367 E8.98134
G1 X59.194 Y71.167 E8.98658
G1 X60.639 Y69.53 E9.03015
G1 X60.811 Y69.341 E9.03525
G1 X62.309 Y67.752 E9.07883
G1 X62.496 Y67.561 E9.08417
G1 X64.048 Y66.024 E9.12776
G0 F6000 X64.33 Y66.308
G1 F1200 X64.506 Y66.139 E9.13263
G1 X66.108 Y64.654 E9.17622
G1 X66.298 Y64.484 E9.18131
G1 X67.949 Y63.056 E9.22487
G1 X68.133 Y62.902 E9.22966
G1 X69.831 Y61.527 E9.27326
G1 X70.033 Y61.369 E9.27838
G1 X71.777 Y60.054 E9.32196
G1 X71.975 Y59.91 E9.32685
G1 X73.761 Y58.654 E9.37042
G1 X73.966 Y58.515 E9.37536
G1 X75.792 Y57.32 E9.41891
G1 X76.005 Y57.185 E9.42395
G1 X77.874 Y56.051 E9.46757
G1 X78.09 Y55.926 E9.47255
G1 X79.992 Y54.858 E9.51608
G1 X80.206 Y54.742 E9.52094
G1 X82.146 Y53.735 E9.56456
G1 X82.374 Y53.622 E9.56964
G1 X84.346 Y52.683 E9.61323
G1 X84.568 Y52.581 E9.6181
G1 X86.569 Y51.708 E9.66167
G1 X86.797 Y51.613 E9.6666
G1 X88.827 Y50.807 E9.71019
G1 X89.064 Y50.718 E9.71524
G1 X91.12 Y49.982 E9.75882
G1 X91.352 Y49.903 E9.76371
G1 X93.433 Y49.235 E9.80732
G1 X93.674 Y49.162 E9.81235
G1 X95.773 Y48.566 E9.85589
G1 X96.018 Y48.501 E9.86095
G1 X98.137 Y47.977 E9.90451
G1 X98.364 Y47.925 E9.90916
G1 X100.476 Y47.473 E9.95226
G1 X100.732 Y47.423 E9.95747
G1 X102.908 Y47.037 E10.00157
G1 X103.147 Y46.998 E10.0064
G1 X105.308 Y46.687 E10.04997
G1 X105.559 Y46.656 E10.05502
G1 X107.731 Y46.419 E10.09862
G1 X107.978 Y46.396 E10.10357
G1 X110.155 Y46.232 E10.14714
G1 X110.406 Y46.217 E10.15215
G1 X112.589 Y46.127 E10.19576
G1 X112.83 Y46.121 E10.20057
G1 X115.013 Y46.102 E10.24413
G1 X115.267 Y46.104 E10.2492
G1 X117.45 Y46.16 E10.29278
G1 X117.701 Y46.171 E10.29779
G1 X119.88 Y46.301 E10.34136
G1 X120.123 Y46.32 E10.34622
G1 X122.298 Y46.522 E10.38981
G1 X122.549 Y46.549 E10.39485
G1 X124.716 Y46.825 E10.43844
G1 X124.961 Y46.861 E10.44338
G1 X127.116 Y47.209 E10.48695
G1 X127.355 Y47.251 E10.49179
G1 X129.499 Y47.67 E10.53539
G1 X129.748 Y47.724 E10.54047
G1 X131.874 Y48.216 E10.58402
G1 X132.113 Y48.275 E10.58893
G1 X134.224 Y48.838 E10.63253
G1 X134.464 Y48.906 E10.63751
G1 X136.555 Y49.54 E10.68111
G1 X136.795 Y49.617 E10.68614
G1 X138.861 Y50.321 E10.7297
G1 X139.092 Y50.404 E10.7346
G1 X141.136 Y51.177 E10.77821
G1 X141.37 Y51.271 E10.78324
G1 X143.386 Y52.113 E10.82684
G1 X143.607 Y52.209 E10.83165
G1 X145.592 Y53.115 E10.87519
G1 X145.82 Y53.224 E10.88023
G1 X147.774 Y54.198 E10.9238
G1 X147.996 Y54.313 E10.92879
G1 X149.917 Y55.353 E10.97239
G1 X150.134 Y55.476 E10.97737
G1 X152.019 Y56.58 E11.02096
G1 X152.228 Y56.707 E11.02584
G1 X154.074 Y57.872 E11.0694
G1 X154.281 Y58.007 E11.07433
G1 X156.087 Y59.233 E11.11789
G1 X156.295 Y59.38 E11.12298
G1 X158.06 Y60.669 E11.16659
G1 X158.256 Y60.817 E11.17149
G1 X159.975 Y62.162 E11.21505
G1 X160.167 Y62.317 E11.21997
G1 X161.842 Y63.72 E11.26358
G1 X162.032 Y63.885 E11.2686
G1 X163.657 Y65.343 E11.31217
G1 X163.84 Y65.513 E11.31715
G1 X165.416 Y67.026 E11.36075
G1 X165.591 Y67.2 E11.36568
G1 X167.114 Y68.763 E11.40923
G1 X167.285 Y68.944 E11.4142
G1 X168.757 Y70.56 E11.45782
G1 X168.921 Y70.746 E11.46277
G1 X170.335 Y72.407 E11.5063
G1 X170.493 Y72.599 E11.51126
G1 X171.853 Y74.31 E11.55488
G1 X172.004 Y74.507 E11.55983
G1 X173.305 Y76.261 E11.60341
G1 X173.451 Y76.465 E11.60842
G1 X174.692 Y78.263 E11.65202
G1 X174.827 Y78.466 E11.65688
G1 X176.007 Y80.302 E11.70043
G1 X176.14 Y80.516 E11.70546
G1 X177.245 Y82.371 E11.74855
G1 X177.366 Y82.583 E11.75342
G1 X178.433 Y84.517 E11.7975
G1 X178.552 Y84.742 E11.80258
G1 X179.541 Y86.69 E11.84618
G1 X179.651 Y86.916 E11.85119
G1 X180.573 Y88.896 E11.89478
G1 X180.672 Y89.118 E11.89963
G1 X181.528 Y91.126 E11.94319
G1 X181.623 Y91.358 E11.9482
G1 X182.411 Y93.395 E11.99178
G1 X182.496 Y93.627 E11.99671
G1 X183.216 Y95.69 E12.04032
G1 X183.294 Y95.926 E12.04528
G1 X183.944 Y98.011 E12.08886
G1 X184.014 Y98.25 E12.09383
G1 X184.593 Y100.355 E12.1374
G1 X184.656 Y100.599 E12.14243
G1 X185.163 Y102.722 E12.18599
G1 X185.216 Y102.961 E12.19087
G1 X185.653 Y105.102 E12.23448
G1 X185.698 Y105.348 E12.23947
G1 X186.062 Y107.501 E12.28304
G1 X186.099 Y107.741 E12.28789
G1 X186.389 Y109.88 E12.33097
G1 X186.419 Y110.133 E12.33605
G1 X186.64 Y112.33 E12.38012
G1 X186.66 Y112.577 E12.38506
G1 X186.806 Y114.757 E12.42866
G1 X186.819 Y115.007 E12.43366
G1 X186.891 Y117.189 E12.47723
G1 X186.895 Y117.436 E12.48216
G1 X186.894 Y119.621 E12.52576
G1 X186.89 Y119.869 E12.53071
G1 X186.816 Y122.052 E12.5743
G1 X186.803 Y122.299 E12.57924
G1 X186.656 Y124.478 E12.62282
G1 X186.635 Y124.726 E12.62779
